src/activities/game/2663.svg

<?xml version="1.0" encoding="UTF-8"?>
<svg id="emoji" xmlns="http://www.w3.org/2000/svg" viewBox="0 0 72 72">
  <g id="grid">
    <path d="m68,4v64H4V4h64m4-4H0v72h72V0Z" fill="#b3b3b3"/>
    <path d="m12.9,11h46.2c1.1,0,1.9.9,1.9,1.9v46.1c0,1.1-.9,1.9-1.9,1.9H12.9c-1,.1-1.9-.8-1.9-1.9V12.9c0-1.1.9-1.9,1.9-1.9Z" fill="none" stroke="#00a5ff" stroke-miterlimit="10" stroke-width=".1"/>
    <path d="m18.3,4h35.5c1.2,0,2.2,1,2.2,2.3v59.5c0,1.2-1,2.3-2.3,2.3H18.3c-1.3-.1-2.3-1.1-2.3-2.4V6.3c0-1.3,1-2.3,2.3-2.3Z" fill="none" stroke="#00a5ff" stroke-miterlimit="10" stroke-width=".1"/>
    <path d="m68,18.3v35.5c0,1.2-1,2.3-2.3,2.3H6.3c-1.3-.1-2.3-1.1-2.3-2.4V18.3c0-1.3,1-2.3,2.3-2.3h59.5c1.2,0,2.2,1,2.2,2.3Z" fill="none" stroke="#00a5ff" stroke-miterlimit="10" stroke-width=".1"/>
    <circle cx="36" cy="36" r="29" fill="none" stroke="#00a5ff" stroke-miterlimit="10" stroke-width=".1"/>
  </g>
  <g id="color">
    <path d="m33.289,36.9738l-3.4617-6.7458s5.3256,4.083,12.7815,0c0,0-1.7752,6.1245-1.5089,6.9233s-7.8109-.1775-7.8109-.1775Z" fill="#fff"/>
    <circle cx="19" cy="36.7" r="11.5" fill="#3f3f3f"/>
    <circle cx="36.2" cy="19.6" r="11.5" fill="#3f3f3f"/>
    <circle cx="53.4" cy="36.7" r="11.5" fill="#3f3f3f"/>
    <path d="m38.7,38.8c1.2,7.9,7,20.5,8.9,21.3h-22.7c2-.9,8.4-15.1,9-22.8l.3-.9,4.8,1.5-.3.9Z" fill="#3f3f3f"/>
  </g>
  <g id="line">
    <path d="m38.7,38.8c1.2,7.9,7,20.5,8.9,21.3h-22.7c2-.9,8.4-15.1,9-22.8" fill="none" stroke="#000" stroke-linecap="round" stroke-linejoin="round" stroke-width="2"/>
    <circle cx="36.2" cy="19.6" r="11.5" fill="none" stroke="#000" stroke-linecap="round" stroke-linejoin="round" stroke-width="2"/>
    <circle cx="53.4" cy="36.7" r="11.5" fill="none" stroke="#000" stroke-linecap="round" stroke-linejoin="round" stroke-width="2"/>
    <circle cx="19" cy="36.7" r="11.5" fill="none" stroke="#000" stroke-linecap="round" stroke-linejoin="round" stroke-width="2"/>
  </g>
</svg>

<svg id="emoji" viewBox="0 0 72 72" xmlns="http://www.w3.org/2000/svg">
  <g id="grid">
    <path fill="#B3B3B3" d="M68,4v64H4V4H68 M72,0H0v72h72V0z"/>
    <path fill="none" stroke="#00A5FF" stroke-miterlimit="10" stroke-width="0.1" d="M12.9,11h46.2c1.1,0,1.9,0.9,1.9,1.9V59 c0,1.1-0.9,1.9-1.9,1.9H12.9C11.9,61,11,60.1,11,59V12.9C11,11.8,11.9,11,12.9,11z"/>
    <path fill="none" stroke="#00A5FF" stroke-miterlimit="10" stroke-width="0.1" d="M18.3,4h35.5C55,4,56,5,56,6.3v59.5 c0,1.2-1,2.3-2.3,2.3H18.3C17,68,16,67,16,65.7V6.3C16,5,17,4,18.3,4z"/>
    <path fill="none" stroke="#00A5FF" stroke-miterlimit="10" stroke-width="0.1" d="M68,18.3v35.5c0,1.2-1,2.3-2.3,2.3H6.3 C5,56,4,55,4,53.7V18.3C4,17,5,16,6.3,16h59.5C67,16,68,17,68,18.3z"/>
    <circle cx="36" cy="36" r="29" fill="none" stroke="#00A5FF" stroke-miterlimit="10" stroke-width="0.1"/>
  </g>
  <g id="color">
    <circle cx="19" cy="36.7" r="11.5" fill="#3F3F3F"/>
    <circle cx="36.2" cy="19.6" r="11.5" fill="#3F3F3F"/>
    <circle cx="53.4" cy="36.7" r="11.5" fill="#3F3F3F"/>
    <path fill="#3F3F3F" d="M38.7,38.8c1.2,7.9,7,20.5,8.9,21.3H36.2l0,0H24.9c2-0.9,8.4-15.1,9-22.8l0.3-0.9l4.8,1.5L38.7,38.8z"/>
  </g>
  <g id="line">
    <path fill="none" stroke="#000000" stroke-linecap="round" stroke-linejoin="round" stroke-width="2" d="M38.7,38.8 c1.2,7.9,7,20.5,8.9,21.3H36.2l0,0H24.9c2-0.9,8.4-15.1,9-22.8"/>
    <circle cx="36.2" cy="19.6" r="11.5" fill="none" stroke="#000000" stroke-linecap="round" stroke-linejoin="round" stroke-width="2"/>
    <circle cx="53.4" cy="36.7" r="11.5" fill="none" stroke="#000000" stroke-linecap="round" stroke-linejoin="round" stroke-width="2"/>
    <circle cx="19" cy="36.7" r="11.5" fill="none" stroke="#000000" stroke-linecap="round" stroke-linejoin="round" stroke-width="2"/>
  </g>
</svg>
